X:43
T:T027- Kiss me quick, my mother's coming
S:Merry Medley, 1744
Q:1/4=120
L:1/4
M:C|
K:D
B/c/|d2A2|FDF/G/A/F/|E=cE=c|ECE/F/G/E/|d2A2|F3/2E/DF|G/F/E/D/CE|\
D/D/DD2::a/g/|~f3/2e/da|fdf/g/a/f/|~e3/2d/=cg|e=ce/f/g/e/|\
fdge|afge|g/f/e/d/ce|d/d/dd:|]

